X:553
T:Chopsticks
Z:Jack Campin, http://www.campin.me.uk/
F:Jack Campin's Nine-Note Tunebook
% last edit 03-02-2013
S:http://www.musicaviva.com/abc/tunes/usa/chopsticks.abc
M:6/8
L:1/8
V:1
V:2
Q:3/8=112
K:C
[V:1] "G7"FFF FFF|"C"EEE EEE|"G7"BBB BBB|[1 "C"c2c cBA:|\
                                         [2 "C"c2c c2c|]
[V:2]     GGG GGG|   GGG GGG|    DDD DDD|[1    C2C CDE:|\
                                         [2    C2C C2E|]
%
[V:1] "G7"d2c B2A|"C"G2G GAG|"G7"F2F FGF|[1 "C"E2F G2c:|\
                                         [2 "C"E2F E2z:|
[V:2]     B2A G2F|   E2E EFE|    D2D DED|[1    C2D E2E:|\
                                         [2    C2D C2z:|

